icons/default/FolderUnfilled.svg

<path d="M5 5.5L3 7V18.5L5 19.5H19L20 18V10L19 9H18.5H12L8.5 5.5H5Z" fill="white" />
<path
	d="M5 5H9L12 8H18C18.7956 8 19.5587 8.31607 20.1213 8.87868C20.6839 9.44129 21 10.2044 21 11V17C21 17.7956 20.6839 18.5587 20.1213 19.1213C19.5587 19.6839 18.7956 20 18 20H5C4.20435 20 3.44129 19.6839 2.87868 19.1213C2.31607 18.5587 2 17.7956 2 17V8C2 7.20435 2.31607 6.44129 2.87868 5.87868C3.44129 5.31607 4.20435 5 5 5ZM5 6C4.46957 6 3.96086 6.21071 3.58579 6.58579C3.21071 6.96086 3 7.46957 3 8V17C3 17.5304 3.21071 18.0391 3.58579 18.4142C3.96086 18.7893 4.46957 19 5 19H18C18.5304 19 19.0391 18.7893 19.4142 18.4142C19.7893 18.0391 20 17.5304 20 17V11C20 10.4696 19.7893 9.96086 19.4142 9.58579C19.0391 9.21071 18.5304 9 18 9H11.586L8.586 6H5Z"
	fill="black" />

<path d="M5 5.5 3 7v11.5l2 1h14l1-1.5v-8l-1-1h-7L8.5 5.5H5Z" fill="#fff"/><path d="M5 5h4l3 3h6a3 3 0 0 1 3 3v6a3 3 0 0 1-3 3H5a3 3 0 0 1-3-3V8a3 3 0 0 1 3-3Zm0 1a2 2 0 0 0-2 2v9a2 2 0 0 0 2 2h13a2 2 0 0 0 2-2v-6a2 2 0 0 0-2-2h-6.414l-3-3H5Z"/>
